!!!COM: Bartók, Béla
!!!OTL: Piano Sonata
!!!OMV: I: Allegro moderato
!!!example: 350
!!!work: Bar-30
!!!OMD-full: Allegro moderato
!!!OMD: [Allegro moderato]
**kern	**kern	**dynam	**dynam
*grp:A	*grp:B	*grp:B	*
*part1	*part1	*part1	*
*staff2	*staff1	*	*
*ICklav	*ICklav	*	*
*Ipiano	*Ipiano	*	*
*I"Piano	*	*	*
*I'Pno.	*	*	*
*clefF4	*clefG2	*	*
*k[]	*k[]	*	*
*C:	*C:	*	*
*M2/4	*M2/4	*	*
=22	=22	=22	=22
*^	*^	*	*
!	!	!LO:TX:t=[[quarter]=123]	!	!	!
!	!	!LO:TX:b:t=	!	!	!
!	!	!LO:T:n=2:a	!	!LO:DY:ed=brack	!LO:DY:t=
8DL	8GG#X 8C#X	4ryy	8ryyyy	4ryy	4ryy
8D	8r	.	8ryy	.	.
8D	8EE#X 8AA#X	16ryy	8ryy	.	.
.	.	16ryy	.	.	.
8DJ	8r	16ryy	8ryy	.	.
.	.	16ryy	.	.	.
=23	=23	=23	=23	=23	=23
8DL	8GG#X 8C#X	16ryy	8ryy	.	.
.	.	16ryy	.	.	.
8D	8r	16reeyy	8ryy	.	.
.	.	16ryy	.	.	.
8D	8EE#X 8AA#X	16ryy	8ryy	.	.
.	.	16ryy	.	.	.
8DJ	8r	16ryy	8ryy	.	.
.	.	16ryy	.	.	.
=24	=24	=24	=24	=24	=24
8DL	8GG#X 8C#X	16reeyy	8rcyy	.	.
.	.	16ryy	.	.	.
8D	8r	16ryy	8ryy	.	.
.	.	16reeyy	.	.	.
8D	8EE#X 8AA#X	16ryy	8ryy	.	.
.	.	16ryy	.	.	.
8DJ	8r	16reeyy	8ryy	.	.
.	.	16ryy	.	.	.
=25	=25	=25	=25	=25	=25
8DL	8GG#X 8C#X	16ryy	8ryy	.	.
.	.	16reeyy	.	.	.
8D	8r	16ryy	8ryy	.	.
.	.	16ryy	.	.	.
*	*	*v	*v	*	*
8D	8EE#X 8AA#X	16reeyy	.	.
!	!	!LO:S:a	!	!
.	.	16ryy	4ryy	.
8DJ	8r	16ryy	.	.
.	.	16ryy	.	.
=26	=26	=26	=26	=26
*	*	*^	*	*
8F#XL 8Gn	8C#X	16ryy	8ryy	4ryy	.
.	.	16ryy	.	.	.
8F# 8G	8r	8reeyy	8ryy	.	.
8r	8AAA#X 8FF#X 8GGz	8reeyy	8rcyy	.	.
8F#J 8G	8r	16ryy	8ryy	.	.
.	.	16ryy	.	.	.
=27	=27	=27	=27	=27	=27
8F#XL 8G	8C#X	4reeyy	8rcyy	.	.
8F# 8G	8r	.	8ryy	.	.
8F# 8G	8AA#X	16ryy	8ryy	.	.
.	.	16ryy	.	.	.
8F#J 8G	8r	8reeyy	8ryy	.	.
=28	=28	=28	=28	=28	=28
8F#XL 8G	8C#X	8ryy	8ryyyy	.	.
8F# 8G	8r	16ryy	8ryy	.	.
.	.	16ryy	.	.	.
8r	8AAA#X 8FF#X 8GGz	16ryy	8ryyyy	.	.
!	!	!LO:S:a	!	!	!
.	.	16ryy	.	.	.
8F#J 8G	8r	16ryy	8ryy	.	.
.	.	16ryy	.	.	.
*	*	*v	*v	*	*
=29	=29	=29	=29	=29
8F#XL 8G	8C#X	8ryy	.	.
8F# 8G	8r	16ryy	.	.
.	.	16ryy	.	.
8F# 8G	8AA#X	16ryy	.	.
.	.	16ryy	.	.
8F#J 8G	8r	16ryy	.	.
.	.	16ryy	.	.
=30	=30	=30	=30	=30
8F#XL 8G	8C#X	16ryy	.	.
.	.	16ryy	.	.
8F#J 8G	8r	8ryy	.	.
*	*	*clefF4	*	*
4r	8AAA#X 8FF#X 8GG	8ryy	.	.
.	8r	8ryy	.	.
*v	*v	*	*	*
*	*clefG2	*	*
=	=	=	=
*-	*-	*-	*-
!!!system-decoration: [({(s1,s2)})]
!!!RDF**kern: > = above
!!!CDT: 1881/03/25-1945/09/26
!!!CBL: Sînnicolau Mare (Nagyszentmiklós), Romania (Hungary)
!!!CDL: New York, United States
!!!CNT: Hungarian
!!!AGN: Instrumental; Keyboard
!!!MCN:
!!!MDT: 1926/12/08
!!!MGN:
!!!MLC: Budapest, Hungary
!!!MPD: 1926
!!!MPN: Bartók, Béla
!!!ODT: 1926
!!!PDT: 1927
!!!excerpt-start-measure: 22
!!!excerpt-end-measure: 30
!!!excerpt-start-time: 0:23
!!!excerpt-end-time: 0:32
!!!excerpt-duration-sec: 9
!!!excerpt-time-signature: 2/4
!!!excerpt-tempo-beat: [quarter]
!!!excerpt-tempo-rate: [120-126]
!!!excerpt-meter-type: duple
!!!excerpt-beat-group: G2
!!!excerpt-beat-subgroup: G2
!!!experiment: 1
!!!EEV: 2020/07/28
!!!ONB: Converted from MusicXML on 2020/07/28
